X:20
T:Reel 20
M:4/4
K:Amin
L:1/8
ED|CA, (3A,G,A, E>A, (3A,G,A, |B,G,GE FEGD||C>A, (3A,A,A, EDB,D|CA,G,A, B,G,GE:||2CEA,B, CEAG|GEDB, CA,A,|G|AEAB A2BA|GEEF GABG|AEEF G2FG|| (3ABA BG AGEG:||2GBAB cBAG|
